X: 3311
T: Reel
B:[[Notböcker/Melodier til gamle danske Almuedanse for Violin solo]]
O:Danmark
Z:Søren Bak Vestergaard
M: 2/4
L: 1/16
K: A
a2eg a2eg|a2e(d d)cBA|dfff dfff|dfff fedc|\
a2eg a2eg|a2e(d d)cBA|ABcd efga|edcB A4:|\
|:ceee ceee|ceee f2d2|dfff dfff|dfff fedc|\
ceee ceee|ceee f2d2|defg a2f2|edcB A4:|
(:musicend:)
(:music:)
